X:39
T:Am Bodach a chianamh
S:Petrie's Collection of Strathspey Reels and Country Dances &c., 1790
Z:Steve Wyrick <sjwyrick'at'gmail'dot'com>, 3/19/04
N:Petrie's First Collection, page 18
L:1/8
M:9/8
R:Slip Jig
K:D
"^Slow"
  A,  |D>EF   AFD    E2B,|D>EF   AFE    D2A,|D>EF         AFD    E2B,|\
       D>EF   AFA    f2d |e2B    d2F    E2B,|D3/2(E/F/G/) AFD    D2 :|
|:f   |d>ef   dfd    e2B |d>ef   dfe    d2A |d>ef         dfd    e2B |\
       d>ef   dfd    f2d |e2B    d2F    E2B,|D/D/DF       D/D/DF D2 :|
|:A,  |D/D/DF D/D/DF E2B,|D/D/DF D/D/DF D2A,|D/D/DF       D/D/DF E2B,|\
       D/D/DF A/A/Ad f2d |e2B    d2F    E2B,|D3/2(E/F/G/) AFE    D2 :|
|:f/g/|afd    afd    e2B |afd    aef    d2A |afd          afd    e2B |\
       afd    afd    f2d |e2B    d2F    E2B,|D3/2(E/F/G/) AFE    D2 :|
%Petrie left the final repeat sign off the last part -SW
